X: 12532
T: Farewell To Jim
R: jig
M: 6/8
K: Dmajor
||f2d edc|A2d cAG|A2A EFG|A2d cde|
f2f ged|e2d cAG|(3Bcd B cAA|(4Bcdc d3:|
F2G Add|cAA (3Bcd e|gfg efd|e2d cAG|
(3Bcd B cAB|cde g3|edB cAG|(3cde c d3:|

